X:1
T:Cast Thy Burden upon the Lord
T:Text: Psalm 55:22, 16:8 Tune: Felix Mendelssohn (1809-1847), from Elijah
T:Irregular [CAST THY BURDEN UPON THE LORD] www.hymnary.org/text/cast_thy_burden_upon_the_lord_and_he_sha
T:Cast Thy Burden upon the Lord
T:This hymn is in the public domain.  You may freely use this score for personal and congregational worship.  If you reproduce the score, please credit Hymnary.org as the source. 
T:This hymn is in the public domain.  You may freely use this score for personal and congregational worship.  If you reproduce the score, please credit Hymnary.org as the source. 
Z:This hymn is in the public domain.  You may freely use this score for personal and congregational worship.  If you reproduce the score, please credit Hymnary.org as the source.
%%score ( 1 2 ) ( 3 4 )
L:1/8
M:4/4
K:Eb
V:1 treble nm="Piano" snm="Pno."
V:2 treble 
V:3 bass nm="Piano" snm="Pno."
V:4 bass 
V:1
 [B,E]2 (([B,E][DF])) [EG]2 [Ec][Ec] | [DB]2 [FA]2 [EG]4 | [EG]2 [EB]2 [EB]2 [EA]2 | %3
w: Cast thy _ bur- den up-|on the Lord,|and he shall sus-|
 F4 E2 (([B,E][DF])) | [EG]2 [Gc][Gc] [FB]2 [FA][EA] | [DG]2 [DG][DG] [DG]4 | [CG]2 B4 [EA][EG] | %7
w: tain thee; he _|ne- ver will suf- fer the|right- eous to fall:|he is at thy|
 F4 E2 [DF]2 | [DF]2 [=EG]2 [FA]2 [FA]2 | [_EG]6 [Fc]2 | [Ee]2 [Gc]2 G2 =A2 | [DB]6 [FB]2 | %12
w: right hand. Thy|mer- cy, Lord, is|great and|far a- bove the|heavens: let|
 [EB]2 [EG]2 [EA]2 B2 | [Ac]2 [Ac]4 [EB]2 | [EA]2 [EG]2 F4 | [EE]8 |] %16
w: none be made a-|sham- ed that|wait up- on|thee.|
V:2
 x8 | x8 | x8 | (E2 D2) E2 x2 | x8 | x8 | x2 (D2 E2) x2 | (E2 D2) E2 x2 | x8 | x8 | x4 G2 (FE) | %11
 x8 | x6 (FG) | x8 | x4 (E2 D2) | x8 |] %16
V:3
 [E,G,]2 (G,A,) [E,B,]2 [A,,A,][A,,G,] | [B,,F,]2 [D,B,]2 [E,B,]4 | %2
 [E,B,]2 [G,B,]2 [G,,B,]2 [A,,C]2 | (F,2 A,2) [E,G,]2 (G,A,) | [E,B,]2 [C,E][C,E] D2 [F,C][F,C] | %5
 [G,=B,]2 [G,B,][G,B,] [G,B,]4 | [C,E]2 [G,,B,]4 [A,,C][A,,C] | [B,,A,]4 [E,G,]2 B,2 | %8
 B,2 [G,B,]2 [F,C]2 [F,C]2 | [C,C]6 [C,A,]2 | [C,G,]2 (([C,E][D,D])) [E,C]2 [F,C]2 | %11
 [B,,B,]6 [D,_A,]2 | [E,G,]2 [_D,B,]2 [C,E]2 [B,,_D]2 | [A,,C]2 [A,,E]4 [G,,E]2 | %14
 [C,A,]2 [A,,C]2 (F,2 A,2) | [E,G,]8 |] %16
V:4
 x2 (G,F,) x4 | x8 | x8 | B,,4 x2 (G,F,) | x4 (D,E,) x2 | x8 | x8 | x6 B,2 | A,2 x6 | x8 | x8 | %11
 x8 | x8 | x8 | x4 B,,4 | x8 |] %16

